X:27
T:Schottis fr{\aa}n Barseb\"ack
R:schottis
A:Sk{\aa}ne
M:C|
K:D
AG|F2AG E2AF|D2FA d2d2|cege cdec|dfdB A2AG|
F2AG E2AF|D2FA d2d2|cege cdec|d2d2d2:|
|:A2|Affd A2AA|Affd B2B2|Bgge eccA|Aaaf fddA|
Affd A2AA|Affd B2B2|Bgge cdef|d2d2d2:|
